X:1
T:Title
%%score 1 2 3
L:1/8
M:3/2
K:C
V:1 treble nm="Part_1"
V:2 treble-8 nm="Part_2"
V:3 treble-8 nm="Part_3"
V:1
 G4 G4 G4 | F4 E2 G2 F2 E2 | G4 G4 z4 | A4 G4 c4 | d2 c4 B6 | A2 c2 B2 A4 G2- | G2 z2 G4 F2 E2- | %7
 EDFG A3 G F3 E | G12 || G4 d4 c4 | d4 B2 c2 A3 G | B8 c4 | _B2 A3 G G2 F2 E2 | G4 z4 c4 | %14
 A4 c4 B2 A2- | A2 B2 c2 d2 c3 B | d8 B4 | c2 B2 A6 G2 | G4 F4 G2 A2 | G2 FE D2 G2 F3 E | G12 || %21
 d4 c4 d2 B2 | c8 d4- | d2 e2 c2 B2 d4 | d2 _B2 G2 A2 F3 E | G4 z4 F2 G2 | A2 c2 _B2 A2 c4 | %27
 A4 c2 _B2 G4 | A4 G2 E2 F4 | G2 _B2 A2 G3 FFE | G12 || G4 F4 G4 | G4 A2 B2 c4- | %33
 c2 B2 G2 G2 F3 E | G4 A6 F2 | G4 A4 A4 | B2 c2 d4 G4 | A2 c2 _B2 G3 FFE | G12 || G4 A4 G2 F2 | %40
 E6 D4 G2 | F3 E G4 _B4 | A4 z4 c4 | _B4 A4 G4 | A4 G4 F4 | G12 || d4 d4 G2 c2 | _B2 A2 c4 B2 A2 | %48
 G4 F4 G4 | _B2 d4 c2 A4 | c4 c4 d2 e2 | c2 A2 BG G3 FFE | G4 z4 E4 | C4 E2 F2 G2 A2- | %54
 A2 _B2 c4 d2 c2 | A4 c4 _B4 | A4 G2 G2 F3 E | G12 |] %58
V:2
 d4 e4 c4 | d2 A4 G2 c4 | d4 z4 d2 e2 | f2 e2 c4 F4 | c4 G8 | A4 F4 z2 G2 | d4 e4 f2 g2 | %7
 B2 A4 d2 c2 B2 | d12 || d6 g2 f2 e2 | g2 d2 G2 z2 A4 | G8 g4 | f2 e2 d4 c4 | d8 z4 | %14
 d4 e2 g4 f2- | f2 e2 a4 g4 | a2 f4 e2 g4 | e4 f2 d2 e4 | d4 c2 d2 _B2 A2 | c2 G4 d2 c2 B2 | d12 || %21
 a4 g4 a2 f2 | g8 a4- | a2 b2 g2 f2 a4 | a2 f2 d2 e2 c3 B | d4 z4 c2 d2 | e2 g2 f2 e2 g4 | %27
 e4 g2 f2 d4 | e4 d2 B2 c4 | d2 f2 e2 d3 c cB | d12 || c4 c4 d4 | d4 f6 e2 | c6 d2 c2 B2 | %34
 d4 z4 d4 | c4 f8 | e4 d2 B2 c4 | d2 e3 d d3 c _B2 | d12 || d4 f2 e2 d4 | c2 B2 A4 B2 d2 | %41
 c2 B2 d4 d4 | z4 d4 c4 | f4 e4 d4 | c6 d2 c2 _B2 | d12 || g4 f4 e4 | f4 g4 g2 f2 | d4 z4 z4 | %49
 g8 f4 | e2 g2 f2 e2 g4 | g2 f2 _e2 d4 c2 | d4 z4 c4 | e2 f2 g4 e4 | f4 e4 d4 | z2 f4 e2 d4 | %56
 c4 d2 e2 c2 _B2 | d12 |] %58
V:3
 G4 c4 e4 | d4 c2 B2 A4 | G12 | d4 e4 f4 | e4 d8 | c6 A2 c2 B2 | G4 c6 B2 | d4 c2 B2 A4 | G12 || %9
 G4 B4 A4 | G4 g2 f4 e2 | g2 f2 d4 c4 | d4 _B2 G2 A4 | G8 f4- | f2 e2 c4 d4- | d2 g2 f2 d2 e4 | %16
 d8 G4 | A4 F4 c4 | B2 G2 A4 G2 c2- | c2 d2 B4 A4 | G12 || d4 e4 f2 d2 | e8 d2 f2- | f2 g2 e4 d4- | %24
 d4 B2 c2 A4 | G8 A2 B2 | c4 d4 c4- | c4 c4 B4 | A2 c2 B2 G2 A4 | G2 d2 c2 B2 A4 | G12 || %31
 G4 A4 G4 | B2 A2 F8 | A4 c2 B2 A4 | G4 d4 f4 | e4 d8 | g4 f2 d2 e4 | d2 c4 _B2 A4 | G12 || %39
 G4 F4 G4 | A4 c2 B2 G4 | A4 G8 | d4 f4 e4 | d4 c2 A2 _B4 | A2 F2 c2 _B2 A4 | G12 || G4 d4 e2 c2 | %47
 d4 c6 d2 | _B2 G2 A4 G4 | z2 G2 _B2 c2 d4 | c2 _B2 A4 G2 c2- | c2 F2 G2 A2 G4 | G8 A2 B2 | c12 | %54
 d4 c4 _B2 A2 | F8 G4 | A4 _B2 c2 A4 | G12 |] %58

